Hatter-kde/actions/16/xml-text-new.svg

<svg xmlns="http://www.w3.org/2000/svg" viewBox="0 0 16 16">
  <defs id="defs3051">
    <style type="text/css" id="current-color-scheme">
      .ColorScheme-Text {
        color:#363636;
      }
      </style>
  </defs>
 <path style="fill:currentColor;fill-opacity:1;stroke:none" 
       d="M 6.3828125 2 L 2 13 L 3.3574219 13 L 4.546875 10 L 9 10 L 9 9 L 4.9414062 9 L 7.0625 3.328125 C 7.17566 3.704205 7.773975 5.4100894 8.859375 8.4433594 L 9.0839844 9 L 10.453125 9 L 7.7480469 2 L 6.3828125 2 z M 11 9 L 11 11 L 9 11 L 9 12 L 11 12 L 11 14 L 12 14 L 12 12 L 14 12 L 14 11 L 12 11 L 12 9 L 11 9 z "
     class="ColorScheme-Text"
     />
</svg>

<?xml version="1.0" encoding="UTF-8"?>
<svg viewBox="0 0 16 16" xmlns="http://www.w3.org/2000/svg">
 <defs id="defs3051">
  <style id="current-color-scheme" type="text/css">.ColorScheme-Text {
        color:#363636;
      }</style>
 </defs>
 <path class="ColorScheme-Text" d="m6.3828 2-4.3828 11h1.3574l1.1895-3h4.4531v-1h-4.0586l2.1211-5.6719c0.11316 0.37608 0.71148 2.082 1.7969 5.1152l0.22461 0.55664h1.3691l-2.7051-7h-1.3652zm4.6172 7v2h-2v1h2v2h1v-2h2v-1h-2v-2h-1z" fill="currentColor"/>
</svg>
